icons/asterisk/asterisk.svg

<svg width="14" height="14" viewBox="0 0 14 14" fill="none" xmlns="http://www.w3.org/2000/svg">
<path d="M7.00055 2.5C7.08791 2.50009 7.16929 2.52401 7.24078 2.56348C7.25397 2.57078 7.26742 2.57751 7.27985 2.58594C7.41279 2.67582 7.50055 2.82756 7.50055 3V6.13184L10.2134 4.56641C10.393 4.46274 10.6106 4.48365 10.7662 4.60156C10.8178 4.64061 10.8626 4.69046 10.897 4.75C10.9659 4.86959 10.98 5.00623 10.9468 5.12988C10.9385 5.16069 10.9277 5.19095 10.9136 5.21973C10.8715 5.30632 10.804 5.38185 10.7144 5.43359L8.00055 7L10.7144 8.56641C10.9534 8.7044 11.0348 9.01091 10.897 9.25C10.8623 9.30996 10.8173 9.36025 10.7652 9.39941C10.6097 9.5166 10.3926 9.53702 10.2134 9.43359L7.50055 7.86719V11C7.50055 11.1665 7.41782 11.3124 7.29254 11.4033C7.27608 11.4153 7.25868 11.4256 7.24078 11.4355C7.16919 11.4752 7.08808 11.4999 7.00055 11.5H6.99957C6.91204 11.4999 6.83094 11.4751 6.75934 11.4355C6.74144 11.4256 6.72405 11.4153 6.70758 11.4033C6.58227 11.3124 6.49957 11.1665 6.49957 11V7.86621L3.78571 9.43359C3.6473 9.51333 3.48777 9.51642 3.35016 9.46094C3.25007 9.42076 3.16129 9.35056 3.10309 9.25C2.96533 9.01091 3.04669 8.7044 3.28571 8.56641L5.9986 7L3.28571 5.43359C3.04669 5.2956 2.96533 4.98909 3.10309 4.75C3.13755 4.69045 3.1823 4.6406 3.23395 4.60156H3.23297L3.23492 4.60059C3.25208 4.58766 3.2711 4.57791 3.28961 4.56738C3.30926 4.55624 3.32929 4.54644 3.35016 4.53809C3.48769 4.48276 3.64741 4.48674 3.78571 4.56641L6.49957 6.13281V3C6.49957 2.82783 6.5867 2.67587 6.7193 2.58594C6.73193 2.57734 6.74591 2.57091 6.75934 2.56348C6.83084 2.52402 6.9122 2.50008 6.99957 2.5H7.00055Z" fill="red"/>
</svg>

<svg xmlns="http://www.w3.org/2000/svg" width="14" height="14" fill="none" viewBox="0 0 14 14"><path fill="red" d="M7 2.5c.088 0 .17.024.24.063l.04.023A.5.5 0 0 1 7.5 3v3.132l2.713-1.566a.501.501 0 0 1 .501.868L8.001 7l2.713 1.566a.5.5 0 0 1-.5.868L7.5 7.867V11a.5.5 0 0 1-.26.435.5.5 0 0 1-.24.065.5.5 0 0 1-.292-.097A.5.5 0 0 1 6.5 11V7.866L3.786 9.434a.5.5 0 0 1-.436.027.5.5 0 0 1-.247-.211.5.5 0 0 1 .183-.684L5.999 7 3.286 5.434a.5.5 0 0 1-.052-.832h-.001l.002-.001q.026-.018.055-.034l.06-.029a.5.5 0 0 1 .436.028L6.5 6.133V3a.5.5 0 0 1 .22-.414q.018-.012.04-.023A.5.5 0 0 1 7 2.5"/></svg>
